X: 4029
T: ALEXANDRA PARK
R: Reel.
%R: reel
B: James Kerr "Merry Melodies" v.4 p.06 #29
Z: 2016 John Chambers <jc:trillian.mit.edu>
M: C|
L: 1/8
K: A
|:\
e2cA e2cA | defg bagf |\
[1 e2cA e2cA | BAGA Bcd^d :|\
[2 eagf edcB | A2c2 A2z2 H:|
|:\
B2GE c2AE | d2BG e2cA |\
fedc dcBA |[1 GAFG EFGA :|[2 GAFG EBc"_D.C."d |]

%%sep 1 1 500
%%sep 1 1 500

